X:208
T:Maids of Castlebar
Z: id:dc-reel-190
M:C
L:1/8
K:D Major
c|dDD2 EDB,E|D2FA BAFA|dBcA BGAF|EGFD EB,B,2|!
FGFD EDB,E|DEFA B3c|dgfe dBAF|GBAG FDD:|!
^g|a2ga fdde|fdad fddf|gebe geef|gebe geeg|!
f3a g3e|faec dBAF|GBed cBAG|FA,CE D3:|!

